src/img/icons/image.svg

<svg width="32" height="32" viewBox="0 0 32 32" fill="none" xmlns="http://www.w3.org/2000/svg">
<path d="M6.55212 28C5.83894 28 5.23529 27.7529 4.74118 27.2588C4.24706 26.7647 4 26.1611 4 25.4479V6.55212C4 5.83894 4.24706 5.23529 4.74118 4.74118C5.23529 4.24706 5.83894 4 6.55212 4H25.4479C26.1611 4 26.7647 4.24706 27.2588 4.74118C27.7529 5.23529 28 5.83894 28 6.55212V25.4479C28 26.1611 27.7529 26.7647 27.2588 27.2588C26.7647 27.7529 26.1611 28 25.4479 28H6.55212ZM6.55212 25.8824H25.4479C25.5566 25.8824 25.6561 25.8371 25.7465 25.7465C25.8371 25.6561 25.8824 25.5566 25.8824 25.4479V6.55212C25.8824 6.44341 25.8371 6.34388 25.7465 6.25353C25.6561 6.16294 25.5566 6.11765 25.4479 6.11765H6.55212C6.44341 6.11765 6.34388 6.16294 6.25353 6.25353C6.16294 6.34388 6.11765 6.44341 6.11765 6.55212V25.4479C6.11765 25.5566 6.16294 25.6561 6.25353 25.7465C6.34388 25.8371 6.44341 25.8824 6.55212 25.8824ZM9.86447 22.7059H22.2442C22.4995 22.7059 22.6887 22.59 22.8118 22.3582C22.9348 22.1267 22.9158 21.9024 22.7546 21.6852L19.3882 17.1756C19.256 17.0055 19.0859 16.9205 18.8779 16.9205C18.6696 16.9205 18.4995 17.0055 18.3675 17.1756L14.914 21.6742L12.6008 18.7095C12.4688 18.5484 12.3009 18.4678 12.0972 18.4678C11.8936 18.4678 11.7258 18.5529 11.5935 18.7233L9.36753 21.6852C9.19741 21.9024 9.17388 22.1267 9.29694 22.3582C9.42 22.59 9.60918 22.7059 9.86447 22.7059ZM11.0588 12.8235C11.5475 12.8235 11.9638 12.6515 12.3075 12.3075C12.6515 11.9638 12.8235 11.5475 12.8235 11.0588C12.8235 10.5701 12.6515 10.1539 12.3075 9.81012C11.9638 9.46612 11.5475 9.29412 11.0588 9.29412C10.5701 9.29412 10.1539 9.46612 9.81012 9.81012C9.46612 10.1539 9.29412 10.5701 9.29412 11.0588C9.29412 11.5475 9.46612 11.9638 9.81012 12.3075C10.1539 12.6515 10.5701 12.8235 11.0588 12.8235Z" fill="#131212"/>
</svg>

<svg xmlns="http://www.w3.org/2000/svg" viewBox="0 0 32 32">
  <path fill="currentColor" d="M6.552 28a2.464 2.464 0 0 1-1.81-.741A2.463 2.463 0 0 1 4 25.448V6.552c0-.713.247-1.317.741-1.81A2.463 2.463 0 0 1 6.552 4h18.896c.713 0 1.317.247 1.81.741.495.494.742 1.098.742 1.811v18.896c0 .713-.247 1.317-.741 1.81a2.463 2.463 0 0 1-1.811.742H6.552Zm0-2.118h18.896a.414.414 0 0 0 .299-.136c.09-.09.135-.19.135-.298V6.552a.414.414 0 0 0-.136-.298.415.415 0 0 0-.298-.136H6.552a.414.414 0 0 0-.298.136.414.414 0 0 0-.136.298v18.896c0 .109.045.208.136.299.09.09.19.135.298.135Zm3.312-3.176h12.38a.604.604 0 0 0 .568-.348c.123-.231.104-.456-.057-.673l-3.367-4.51a.618.618 0 0 0-.51-.255.618.618 0 0 0-.51.256l-3.454 4.498-2.313-2.965a.623.623 0 0 0-.504-.241.612.612 0 0 0-.503.255l-2.226 2.962c-.17.217-.194.442-.071.673a.604.604 0 0 0 .567.348Zm1.195-9.883a1.7 1.7 0 0 0 1.248-.516 1.7 1.7 0 0 0 .516-1.248 1.7 1.7 0 0 0-.516-1.249 1.7 1.7 0 0 0-1.248-.516 1.7 1.7 0 0 0-1.249.516 1.7 1.7 0 0 0-.516 1.249c0 .489.172.905.516 1.248a1.7 1.7 0 0 0 1.249.516Z"/>
</svg>
